X: 8
T: Porthole Of The Kelp, The
Z: Zachary H
S: https://thesession.org/tunes/263#setting29280
R: reel
M: 4/4
L: 1/8
K: Edor
|:G2 EF|G2 EF|GG GA|FD DF|G2 EF|GA BA|GE FD|E2 EF|
G2 EF|GA Bc|dB AG|FE DF|EF GA|Be eB|dB AF|1FE EF:|2FE Ed
|:e2 e^d|ed BA|GG GA|FD DF|E2 e^d|ed BA|Be e^d|e2 ef|g2 fe|ed Bc|
dB AG|FE DF|EF GA|B2 eB|dB AF|1FE Ed:|2FE E2|
